assets/img/braze_icons/coins-swap-01.svg

<svg fill="none" height="24" viewBox="0 0 24 24" width="24" xmlns="http://www.w3.org/2000/svg"><g fill="#801ed7"><path d="m5.29289 1.29289c.39053-.390521 1.02369-.390521 1.41422 0l2 2c.39052.39053.39052 1.02369 0 1.41422l-2 2c-.39053.39052-1.02369.39052-1.41422 0-.39052-.39053-.39052-1.02369 0-1.41422l.25977-.25976c-1.44468.21598-2.55266 1.46203-2.55266 2.96687 0 .55228-.44772 1-1 1s-1-.44772-1-1c0-2.62727 2.02635-4.78126 4.60144-4.98435l-.30855-.30854c-.39052-.39053-.39052-1.02369 0-1.41422z"/><path d="m18.7071 17.2929c.3905.3905.3905 1.0237 0 1.4142l-.2598.2598c1.4447-.216 2.5527-1.4621 2.5527-2.9669 0-.5523.4477-1 1-1s1 .4477 1 1c0 2.6273-2.0264 4.7813-4.6014 4.9843l.3085.3086c.3905.3905.3905 1.0237 0 1.4142s-1.0237.3905-1.4142 0l-2-2c-.1875-.1875-.2929-.4419-.2929-.7071s.1054-.5196.2929-.7071l2-2c.3905-.3905 1.0237-.3905 1.4142 0z"/><path d="m9.0623 7.06204c.45832-3.42249 3.3898-6.06204 6.9377-6.06204 3.866 0 7 3.13401 7 7 0 3.5479-2.6395 6.4794-6.062 6.9377-.4847-4.1215-3.7542-7.39103-7.8757-7.87566z"/><path d="m8 9c-3.86599 0-7 3.134-7 7s3.13401 7 7 7c3.866 0 7-3.134 7-7s-3.134-7-7-7z"/></g></svg>

<svg width="24" height="24" viewBox="0 0 24 24" fill="none" xmlns="http://www.w3.org/2000/svg">
<path d="M5.29289 1.29289C5.68342 0.902369 6.31658 0.902369 6.70711 1.29289L8.70711 3.29289C9.09763 3.68342 9.09763 4.31658 8.70711 4.70711L6.70711 6.70711C6.31658 7.09763 5.68342 7.09763 5.29289 6.70711C4.90237 6.31658 4.90237 5.68342 5.29289 5.29289L5.55266 5.03313C4.10798 5.24911 3 6.49516 3 8C3 8.55228 2.55228 9 2 9C1.44772 9 1 8.55228 1 8C1 5.37273 3.02635 3.21874 5.60144 3.01565L5.29289 2.70711C4.90237 2.31658 4.90237 1.68342 5.29289 1.29289Z" fill="#801ED7"/>
<path d="M18.7071 17.2929C19.0976 17.6834 19.0976 18.3166 18.7071 18.7071L18.4473 18.9669C19.892 18.7509 21 17.5048 21 16C21 15.4477 21.4477 15 22 15C22.5523 15 23 15.4477 23 16C23 18.6273 20.9736 20.7813 18.3986 20.9843L18.7071 21.2929C19.0976 21.6834 19.0976 22.3166 18.7071 22.7071C18.3166 23.0976 17.6834 23.0976 17.2929 22.7071L15.2929 20.7071C15.1054 20.5196 15 20.2652 15 20C15 19.7348 15.1054 19.4804 15.2929 19.2929L17.2929 17.2929C17.6834 16.9024 18.3166 16.9024 18.7071 17.2929Z" fill="#801ED7"/>
<path d="M9.0623 7.06204C9.52062 3.63955 12.4521 1 16 1C19.866 1 23 4.13401 23 8C23 11.5479 20.3605 14.4794 16.938 14.9377C16.4533 10.8162 13.1838 7.54667 9.0623 7.06204Z" fill="#801ED7"/>
<path d="M8 9C4.13401 9 1 12.134 1 16C1 19.866 4.13401 23 8 23C11.866 23 15 19.866 15 16C15 12.134 11.866 9 8 9Z" fill="#801ED7"/>
</svg>
